packages/symbols/svgs/solid/smile-rotate-right-solid.svg

<svg width="16" height="16" viewBox="0 0 16 16" fill="none" xmlns="http://www.w3.org/2000/svg">
<g clip-path="url(#clip0_587_2843)">
<path fill-rule="evenodd" clip-rule="evenodd" d="M8.19995 0.999996C10.073 0.999996 11.85 1.759 13.148 3.052L15.3 0.899996L16 7.3L10.975 6.75039C10.9915 6.82891 11 6.91232 11 7C11 7.6 10.6 8 10 8C9.4 8 9 7.6 9 7C9 6.4 9.4 6 10 6C10.0645 6 10.1267 6.00463 10.1863 6.01362L11.735 4.465C10.807 3.542 9.53795 3 8.19995 3C5.44295 3 3.19995 5.243 3.19995 8C3.19995 9.06 3.52695 10.072 4.14695 10.928L2.52595 12.101C1.65895 10.901 1.19995 9.483 1.19995 8C1.19995 4.14 4.34095 0.999996 8.19995 0.999996ZM13.698 12.333C14.424 11.413 14.91 10.317 15.103 9.165L13.13 8.834C12.992 9.656 12.646 10.438 12.127 11.094L13.698 12.333ZM12.342 13.644C11.466 14.288 10.436 14.723 9.36599 14.903L9.03399 12.931C9.79799 12.803 10.532 12.492 11.156 12.033L12.342 13.644ZM7.36494 12.93L7.03494 14.903C5.91294 14.715 4.84194 14.248 3.93694 13.552L5.15594 11.966C5.80194 12.463 6.56594 12.796 7.36494 12.93ZM7 7C7 6.4 6.6 6 6 6C5.4 6 5 6.4 5 7C5 7.6 5.4 8 6 8C6.6 8 7 7.6 7 7ZM5 10L11 10L11 9L5 9L5 10Z" fill="black"/>
</g>
<defs>
<clipPath id="clip0_587_2843">
<rect width="16" height="16" fill="white"/>
</clipPath>
</defs>
</svg>

<svg width="16" height="16" viewBox="0 0 16 16" xmlns="http://www.w3.org/2000/svg"><g clip-path="url(#a)"><path fill-rule="evenodd" clip-rule="evenodd" d="M8.2 1c1.873 0 3.65.759 4.948 2.052L15.3.9l.7 6.4-5.025-.55c.017.079.025.162.025.25 0 .6-.4 1-1 1s-1-.4-1-1 .4-1 1-1c.065 0 .127.005.186.014l1.549-1.549A5.024 5.024 0 0 0 8.2 3c-2.757 0-5 2.243-5 5 0 1.06.327 2.072.947 2.928l-1.621 1.173A6.96 6.96 0 0 1 1.2 8c0-3.86 3.141-7 7-7Zm5.498 11.333a6.996 6.996 0 0 0 1.405-3.168l-1.973-.331a4.982 4.982 0 0 1-1.003 2.26l1.571 1.239Zm-1.356 1.311a7.015 7.015 0 0 1-2.976 1.259l-.332-1.972a4.992 4.992 0 0 0 2.122-.898l1.186 1.611Zm-4.977-.714-.33 1.973a6.997 6.997 0 0 1-3.098-1.351l1.219-1.586a4.99 4.99 0 0 0 2.209.964ZM7 7c0-.6-.4-1-1-1s-1 .4-1 1 .4 1 1 1 1-.4 1-1Zm-2 3h6V9H5v1Z"/></g><defs><clipPath id="a"><path fill="#fff" d="M0 0h16v16H0z"/></clipPath></defs></svg>
